icons/media-battery-fill-2.svg

<svg fill="none" viewBox="0 0 24 24"><path stroke="currentColor" stroke-linecap="round" stroke-linejoin="round" stroke-width="2" d="M22.2 13.8v-3.6m-14.4-.6v4.8m0-4.8h-1.2m1.2 0h1.2m-1.2 4.8h-1.2m1.2 0h1.2m1.2-4.8v4.8m0-4.8h-1.2m1.2 0h1.2m-1.2 4.8h-1.2m1.2 0h1.2m-4.8 0h-1.2v-4.8h1.2m0 4.8v-4.8m2.4 4.8v-4.8m2.4 4.8h1.2v-4.8h-1.2m0 4.8v-4.8m-7.2 8.4h12a2.4 2.4 0 0 0 2.4-2.4v-7.2a2.4 2.4 0 0 0-2.4-2.4h-12a2.4 2.4 0 0 0-2.4 2.4v7.2a2.4 2.4 0 0 0 2.4 2.4Z"/></svg>

<svg fill="none" viewBox="0 0 24 24"><path stroke="currentColor" stroke-linecap="round" stroke-linejoin="round" stroke-width="2" d="M22.2 13.8v-3.6M7.8 9.6v4.8m0-4.8H6.6m1.2 0H9m-1.2 4.8H6.6m1.2 0H9m1.2-4.8v4.8m0-4.8H9m1.2 0h1.2m-1.2 4.8H9m1.2 0h1.2m-4.8 0H5.4V9.6h1.2m0 4.8V9.6M9 14.4V9.6m2.4 4.8h1.2V9.6h-1.2m0 4.8V9.6M4.2 18h12a2.4 2.4 0 0 0 2.4-2.4V8.4A2.4 2.4 0 0 0 16.2 6h-12a2.4 2.4 0 0 0-2.4 2.4v7.2A2.4 2.4 0 0 0 4.2 18"/></svg>
